!!!OTL: Der Himmel unser Hort.
!!!OTL-incipit:DER HIMMEL UNSER HORT
!!!COM: H. Doerrjen
!!!ARE: Europa, Mitteleuropa, Deutschland
!!!SCT: F0427
!!!TXL: @@DE
!!!YEM: Copyright 1995, estate of Helmut Schaffrath.
**kern	**text
*ICvox	*
*clefG2	*
*M4/4	*
*met(c)	*
*k[f#]	*
*G:	*
!LO:TX:a:t=Muthig.	!
!LO:TX:a:t=P:only the highest voice encoded:problem	!
{4b	1._Der
=1	=1
4.dd/	Himmel
8cc/	.
4b/	un-
4a	-ſer
=2	=2
2g	Hort!
4r}	.
{4g	Die
=3	=3
4.cc	Freiheit
8b/	.
4cc	un-
4dd	-ſer
=4	=4
2ee}	Wort!
{[2ee	So
=5	=5
4ee]	.
8.ee	gehn
16dd	wir
4cc/	Hand
4b/	in
=6	=6
4a	Hand
4d}	ʒum
{[>2dd/	Kampf
=7	=7
4.dd/]	.
8ee/	für's
4b/	Va-
4a	-ter-
=8	=8
4g}	-land!
{4g	ʒum
[>2gg/	Kampf,
=9	=9
8gg/]	.
8dd/	ʒum
8b/	Kampf
8g	für's
4dd/	Va-
4dd/	-ter-
=10	=10
2g	-land.
4r}	.
==	==
!!!AGN: Vaterlands -, Heimat - Lied, nationalistisch, Krieg
!!!ONB: ESAC (Essen Associative Code) Database: FINK
!!!AMT: simple quadruple
!!!AIN: vox
!!!EED: Helmut Schaffrath
!!!EEV: 1.0
!!Text: E. M. Arndt
!!!RDF**kern: > = above
!!!GTL: Vaterlands- und Heimathslieder
!!!source: Musikalischer Hausschatz der Deutschen. Eine Sammlung von über 1000 Liedern und Gesängen mit Singstimmen und Klavierbegleitung. Leipzig, Litterarisches Verlags-Haus.
!!!page: 263
!!!URL-scan: https://www.digitale-sammlungen.de/en/view/bsb11144622?page=252,253
!!!ENC: Anna Maria Matuszewska
!!!EEV: 2024/07/31
*-	*-